X: 32830
T: Porridge In The Morning
R: jig
M: 6/8
K: Eminor
eBB cBA|GBA GFE|GBA GFE|FGF F3|eBB cBA|
GBA GFE|1 GBA GFE|FED E3:|2 GBA GBA|GFD E3||
eBB bag|fBB cBA|GBA GFE|FGA B^cd|eBB bag|
fBB cBA|1 GBA GFE|FED E3:|2 GBd efg|fed e3||

